X:14751
T:Sailor's Rant,The. JB.24
M:6/8
L:1/8
Q:110
S:James Biggins MS, Leeds, 1779.
R:Cotillion
O:England
A:Yorkshire
Z:
Z:vmp.Nick Barber & Chris Partingto
K:G
g3 dBd|ege dBd|gfe dcB|ABG FED|!g3dBd|ege fga|gfe Ad^cd3D3:|!
|:d3BdB|c3aed|c3AcA|B3gdc|!B3GBG|ABc def|gfe dBd|G3G,3:|]
